!!!OTL: ICH STAND AUF HOHEM BERGE
!!!ARE: Europa, Mitteleuropa, Deutschland
!!!SCT: Z0061
!!!YEM: Copyright 1995, estate of Helmut Schaffrath.
**kern
*ICvox
*Ivox
*M2/4
*k[f#c#]
*D:
{16d
16f#
=1
8a
16a
16dd
16a
16f#
16g
16e
=2
4f#
8e}
{8e
=3
8f#
16f#
16a
8g#
16g#
16b
=4
4a
8r}
{24a
24b
24cc#
=5
8dd
8dd
16dd
16cc#
16b
16a
=6
4b
4a
=7
4g
8f#}
{8a
=8
8b
16a
16g
8f#
8e
=9
4d
8r}
==
!!!AGN: Sagen - Lied, Romanze
!!!ONB: ESAC (Essen Associative Code) Database: ZUCCAL
!!!AMT: simple duple
!!!AIN: vox
!!!EED: Helmut Schaffrath
!!!EEV: 1.0
*-
